icons/fill-new-other-table-lamp.svg

<svg xmlns="http://www.w3.org/2000/svg" width="32px" height="32px" viewBox="0 0 32 32" version="1.1">
    <title>fill-new-other-table-lamp</title>
    <g id="fill-new-other-table-lamp" stroke-width="1" fill-rule="evenodd">
        <path d="M11,30 C10.4477153,30 10,29.5522847 10,29 C10,28.4477153 10.4477153,28 11,28 L14.9996161,28 L14.9996161,20 L5.24661605,20 C4.6943313,20 4.24661605,19.5522847 4.24661605,19 C4.24661605,18.9270377 4.25460124,18.8542944 4.27042899,18.7830695 L7.82598455,2.78306954 C7.92765956,2.32553199 8.33347296,2 8.80217161,2 L23.1978284,2 C23.666527,2 24.0723404,2.32553199 24.1740155,2.78306954 L27.729571,18.7830695 C27.8493784,19.3222028 27.5094476,19.8563797 26.9703144,19.9761871 C26.8990895,19.9920148 26.8263463,20 26.7533839,20 L22,20 L22,23 C22,23.5522847 21.5522847,24 21,24 C20.4477153,24 20,23.5522847 20,23 L20,20 L16.9996161,20 L16.9996161,28 L21,28 C21.5522847,28 22,28.4477153 22,29 C22,29.5522847 21.5522847,30 21,30 L11,30 Z" id="&#36335;&#24452;" />
    </g>
</svg>

<svg xmlns="http://www.w3.org/2000/svg" viewBox="0 0 32 32"><path fill="currentColor" d="M11 30a1 1 0 0 1 0-2h4v-8H5.247a1 1 0 0 1-.977-1.217l3.556-16A1 1 0 0 1 8.802 2h14.396a1 1 0 0 1 .976.783l3.556 16A1 1 0 0 1 26.753 20H22v3a1 1 0 0 1-2 0v-3h-3v8h4a1 1 0 0 1 0 2z"/></svg>
